src/48x48/places/folder-gruvbox-mix-orange-remote.svg

<?xml version="1.0" encoding="UTF-8"?>
<svg width="48" height="48" version="1" xmlns="http://www.w3.org/2000/svg">
 <rect x="4" y="17" width="40" height="26" rx="2" ry="2" opacity=".2"/>
 <path d="m4 34c0 1.108 0.892 2 2 2h36c1.108 0 2-0.892 2-2v-22c0-1.108-0.892-2-2-2h-18c-3 0-4-4-7-4h-11c-1.108 0-2 0.892-2 2" fill="#b94c07"/>
 <rect x="4" y="15" width="40" height="26" rx="2" ry="2" opacity=".2"/>
 <rect x="6" y="13" width="36" height="16" rx="2" ry="2" fill="#F6E0B4"/>
 <rect x="4" y="16" width="40" height="26" rx="2" ry="2" fill="#f28534"/>
 <path d="m6 6c-1.108 0-2 0.892-2 2v1c0-1.108 0.892-2 2-2h11c3 0 4 4 7 4h18c1.108 0 2 0.892 2 2v-1c0-1.108-0.892-2-2-2h-18c-3 0-4-4-7-4z" fill="#F6E0B4" opacity=".1"/>
 <path d="m23 24c-2.021 0.404-3.596 1.979-4 4h-3v2h3c0.405 2.018 1.982 3.595 4 4zm2 0v10c2.021-0.404 3.596-1.979 4-4h3v-2h-3c-0.405-2.018-1.982-3.595-4-4z" fill="#4E3B30"/>
</svg>

<svg xmlns="http://www.w3.org/2000/svg" width="48" height="48" version="1">
 <rect style="opacity:0.2" width="40" height="26" x="4" y="17" rx="2" ry="2"/>
 <path style="fill:#b94c07" d="M 4,34 C 4,35.108 4.892,36 6,36 H 42 C 43.108,36 44,35.108 44,34 V 12 C 44,10.892 43.108,10 42,10 H 24 C 21,10 20,6 17,6 H 6 C 4.892,6 4,6.892 4,8"/>
 <rect style="opacity:0.2" width="40" height="26" x="4" y="15" rx="2" ry="2"/>
 <rect style="fill:#F6E0B4" width="36" height="16" x="6" y="13" rx="2" ry="2"/>
 <rect style="fill:#f28534" width="40" height="26" x="4" y="16" rx="2" ry="2"/>
 <path style="opacity:0.1;fill:#F6E0B4" d="M 6,6 C 4.892,6 4,6.892 4,8 V 9 C 4,7.892 4.892,7 6,7 H 17 C 20,7 21,11 24,11 H 42 C 43.108,11 44,11.892 44,13 V 12 C 44,10.892 43.108,10 42,10 H 24 C 21,10 20,6 17,6 Z"/>
 <path style="fill:#4E3B30" d="M 23,24 C 20.979,24.404 19.404,25.979 19,28 H 16 V 30 H 19 C 19.405,32.018 20.982,33.595 23,34 Z M 25,24 V 34 C 27.021,33.596 28.596,32.021 29,30 H 32 V 28 H 29 C 28.595,25.982 27.018,24.405 25,24 Z"/>
</svg>
